img/simbolo.svg

<svg xmlns="http://www.w3.org/2000/svg" viewBox="0 0 155.9 155.9"><style>.a{fill:#0073be}</style><g id="simbolos"><path d="M131.1 131.1c20.8-20.8 23.5-53.6 9-80.9 3.8 8.5 5.9 17.9 5.9 27.7 0 37.6-30.5 68-68 68-9.9 0-19.3-2.1-27.7-5.9 27.2 14.6 60 11.9 80.8-8.9zM15.8 105.7C12 97.2 9.9 87.8 9.9 78c0-37.6 30.5-68 68-68 9.9 0 19.3 2.1 27.7 5.9-27.3-14.5-60-11.9-80.9 9C4 45.6 1.3 78.4 15.8 105.7z" class="a"/><path d="M129 26.9c26.7 26.7 31.5 66.5 13.4 94.9 8.5-12.5 13.5-27.6 13.5-43.9 0-43.1-34.9-78-78-78C61.7 0 46.6 5 34.1 13.5 62.5-4.6 102.3.2 129 26.9zM26.9 129C.2 102.3-4.6 62.5 13.5 34.1 5 46.6 0 61.7 0 78c0 43.1 34.9 78 78 78 16.3 0 31.4-5 43.9-13.5-28.5 18-68.2 13.2-95-13.5z" class="a"/><path d="M114.4 41.5L78 26.4 41.5 41.5 26.4 78l15.1 36.5 36.5 15 36.5-15.1 15-36.4-15.1-36.5zm-.3 71l-10-34.1h24.1l-14.1 34.1zm-86.4-34h24.1l-10 34.1-14.1-34.1zm14.1-35.1l10 34.1H27.7l14.1-34.1zm35.7 34.1H53.6l23.8-23.8v23.8zm0 1v23.8L53.6 78.5h23.9zm1 0h23.8l-23.8 23.8V78.5zm0-1V53.6l23.8 23.8H78.5zM52.7 77L42.6 42.6 77 52.7 52.7 77zM77 103.2l-34.4 10.1 10.1-34.4L77 103.2zm26.2-24.3l10.1 34.4-34.4-10.1 24.3-24.3zM78.9 52.7l34.4-10.1L103.2 77 78.9 52.7zm-.4-.9V27.7l34.1 14.1-34.1 10zm-1 0l-34.1-10 34.1-14.1v24.1zm0 52.3v24.1l-34.1-14.1 34.1-10zm1 0l34.1 10-34.1 14.1v-24.1zm25.6-26.6l10-34.1 14.1 34.1h-24.1z" class="a"/><circle cx="52.4" cy="78" r="5.7" class="a"/><circle cx="78" cy="26.9" r="7.1" class="a"/><circle cx="78" cy="78" r="5.7" class="a"/><circle cx="78" cy="129" r="7.1" class="a"/><circle cx="26.9" cy="78" r="7.1" class="a"/><circle cx="129" cy="78" r="7.1" class="a"/><circle cx="41.9" cy="41.9" r="5.7" class="a"/><circle cx="114" cy="114" r="5.7" class="a"/><circle cx="41.9" cy="114" r="5.7" class="a"/><circle cx="114" cy="41.9" r="5.7" class="a"/><circle cx="103.5" cy="78" r="5.7" class="a"/><circle cx="78" cy="103.5" r="5.7" class="a"/><circle cx="78" cy="52.4" r="5.7" class="a"/><path d="M282.8-32.6h-11.3c-5.9 0-10.6-4.8-10.6-10.6 0-5.9 4.8-10.6 10.6-10.6h11.3c5.9 0 10.6 4.8 10.6 10.6s-4.8 10.6-10.6 10.6z" fill="#82A0AF"/></g></svg>

<svg xmlns="http://www.w3.org/2000/svg" viewBox="0 0 155.9 155.9"><style>.a{fill:#0073BE;}</style><g id="simbolos"><path d="M131.1 131.1c20.8-20.8 23.5-53.6 9-80.9 3.8 8.5 5.9 17.9 5.9 27.7 0 37.6-30.5 68-68 68 -9.9 0-19.3-2.1-27.7-5.9C77.5 154.6 110.3 151.9 131.1 131.1z" class="a"/><path d="M15.8 105.7C12 97.2 9.9 87.8 9.9 78c0-37.6 30.5-68 68-68 9.9 0 19.3 2.1 27.7 5.9 -27.3-14.5-60-11.9-80.9 9C4 45.6 1.3 78.4 15.8 105.7z" class="a"/><path d="M129 26.9c26.7 26.7 31.5 66.5 13.4 94.9 8.5-12.5 13.5-27.6 13.5-43.9 0-43.1-34.9-78-78-78C61.7 0 46.6 5 34.1 13.5 62.5-4.6 102.3 0.2 129 26.9z" class="a"/><path d="M26.9 129C0.2 102.3-4.6 62.5 13.5 34.1 5 46.6 0 61.7 0 78c0 43.1 34.9 78 78 78 16.3 0 31.4-5 43.9-13.5C93.4 160.5 53.7 155.7 26.9 129z" class="a"/><path d="M114.4 41.5L78 26.4 41.5 41.5 26.4 78l15.1 36.5L78 129.5l36.5-15.1L129.5 78 114.4 41.5zM114.1 112.5l-10-34.1h24.1L114.1 112.5zM27.7 78.5h24.1l-10 34.1L27.7 78.5zM41.8 43.4l10 34.1H27.7L41.8 43.4zM77.5 77.5H53.6l23.8-23.8V77.5zM77.5 78.5v23.8L53.6 78.5H77.5zM78.5 78.5h23.8l-23.8 23.8V78.5zM78.5 77.5V53.6l23.8 23.8H78.5zM52.7 77L42.6 42.6 77 52.7 52.7 77zM77 103.2l-34.4 10.1 10.1-34.4L77 103.2zM103.2 78.9l10.1 34.4 -34.4-10.1L103.2 78.9zM78.9 52.7l34.4-10.1L103.2 77 78.9 52.7zM78.5 51.8V27.7l34.1 14.1L78.5 51.8zM77.5 51.8l-34.1-10 34.1-14.1V51.8zM77.5 104.1v24.1l-34.1-14.1L77.5 104.1zM78.5 104.1l34.1 10 -34.1 14.1V104.1zM104.1 77.5l10-34.1 14.1 34.1H104.1z" class="a"/><circle cx="52.4" cy="78" r="5.7" class="a"/><circle cx="78" cy="26.9" r="7.1" class="a"/><circle cx="78" cy="78" r="5.7" class="a"/><circle cx="78" cy="129" r="7.1" class="a"/><circle cx="26.9" cy="78" r="7.1" class="a"/><circle cx="129" cy="78" r="7.1" class="a"/><circle cx="41.9" cy="41.9" r="5.7" class="a"/><circle cx="114" cy="114" r="5.7" class="a"/><circle cx="41.9" cy="114" r="5.7" class="a"/><circle cx="114" cy="41.9" r="5.7" class="a"/><circle cx="103.5" cy="78" r="5.7" class="a"/><circle cx="78" cy="103.5" r="5.7" class="a"/><circle cx="78" cy="52.4" r="5.7" class="a"/><path d="M282.8-32.6h-11.3c-5.9 0-10.6-4.8-10.6-10.6v0c0-5.9 4.8-10.6 10.6-10.6h11.3c5.9 0 10.6 4.8 10.6 10.6v0C293.4-37.4 288.6-32.6 282.8-32.6z" fill="#82A0AF"/></g></svg>
